X:123
T:Molly on the Shore
C:W. Krug
M:2/4
L:1/16
K:G
(BA|G)EDB cABA|(3(GAG)BG AGEF|GEDB cABA|(3(GAG)BG A3(BA|
G)EDB cABA|(3(GAG)BG AGEF|GEDB cABA|(3(GAG)BG A2Gd||gfgd ecdB|
(3(GAG)BG AGEf|gfgd ecdB|(3(GAG)BG A2Gf|gfgd ecdB|(3(GAG)BG AGEF|
GBAc Bdge|dBGB A2BG||cccA BBBA|(3(GAG)BG AGEB|cccA BBBA|(3(GAG)BG A2GB|
c/c/ccA B/B/BBBA|(3(GAG)BG AGEA|GEDB cABA|(3(GAG)BG A2||
